!!!COM: Vivaldi, Antonio Lucio
!!!CDT: 1678/03/04-1741/08/28
!!!OPR: 12 sonatas for two violins and basso continuo
!!!OTL: Sonata in F major, op. @{OPS}, no. @{ONM} (@{SCT})
!!!OPS: 1
!!!ONM: 5
!!!OMV: 4. Gavotta
!!!SCT: RV 69
!!!SCA: Antonio Vivaldi: Thematisch-systematisches Verzeichnis seiner Werke (Ryom-Verzeichnis)
!!!OMD: Presto
!!!key: F
**kern	**fb	**kern	**kern
*part3	*	*part2	*part1
*staff3	*	*staff2	*staff1
*ICstr&ICklav	*	*ICstr	*ICstr
*Icello&Icemba	*	*Ivioln	*Ivioln
*	*	*I#2	*I#1
*I"Violoncello\nContinuo	*	*I"Violin 2	*I"Violin 1
*I'bc	*	*I'v2	*I'v1
*>[A,A,B,B1,B,B2]	*>[A,A,B,B1,B,B2]	*>[A,A,B,B1,B,B2]	*>[A,A,B,B1,B,B2]
*>norep[A,B,B2]	*>norep[A,B,B2]	*>norep[A,B,B2]	*>norep[A,B,B2]
*>A	*>A	*>A	*>A
*clefF4	*	*clefG2	*clefG2
*k[b-]	*	*k[b-]	*k[b-]
*F:	*	*F:	*F:
*M4/4	*	*M4/4	*M4/4
*met(c)	*	*met(c)	*met(c)
*MM158	*	*MM158	*MM158
8.F\L	.	4aa\	4ff\
16G\k	.	.	.
8.A\	6	4ff\	4cc\
16F\Jk	.	.	.
=1	=1	=1	=1
8.E\L	6	2cc\	4gg\
16F\k	.	.	.
8.E\	.	.	4cc\
16D\Jk	.	.	.
8.C/L	.	4ee\	4gg\
16D/k	.	.	.
8.E/	6	4gg\	4ccc\
16C/Jk	.	.	.
=2	=2	=2	=2
8.F\L	.	4ff\	4aa\
16G\k	.	.	.
8.A\	6	4cc\	2ff\
16G\Jk	.	.	.
8.F\L	6	[2dd\	.
16E\k	.	.	.
8.D\	.	.	8.gg\L
16C\Jk	.	.	16aa\Jk
=3	=3	=3	=3
8.BBn\L	6	4dd\]	8.gg\L
16Bn\k	.	.	16ff\k
8.c\	.	2cc\	8.ee\
16F\Jk	.	.	16ff\Jk
8.G\L	5 4	.	2dd\
16F\k	.	.	.
8.G\	n	4bn\	.
16GG\Jk	.	.	.
=4	=4	=4	=4
8.c\L	.	2cc\	2cc\
16B-X\k	.	.	.
8.A\	6	.	.
16G\Jk	.	.	.
!!LO:LB:g=original
=:|!|:	=:|!|:	=:|!|:	=:|!|:
*>B	*>B	*>B	*>B
8.F\L	.	4ff\	4aa\
16A\k	.	.	.
8.B-y\	.	4dd\	4ff\
16A\Jk	.	.	.
=5	=5	=5	=5
8.G\L	.	[2gg\	4bb-y\
16F\k	.	.	.
8.E\	.	.	4gg\
16D\Jk	.	.	.
8.C#X/L	5	4gg\]	4.ee\
16AA/k	.	.	.
8.D/	.	4ff\	.
.	.	.	8dd\
16GG/Jk	.	.	.
=6	=6	=6	=6
8.AA\L	#	4ee\	4cc#X\
16E\k	.	.	.
8.A\	#	4cc#X\	4a/
16G\Jk	.	.	.
8.F\L	6	4.dd\	4.aa\
16E\k	.	.	.
8.F\	.	.	.
.	.	8dd\	8bb-y\
16G\Jk	.	.	.
=7	=7	=7	=7
8.A\L	#	4cc#X\	4ee\
16G\k	.	.	.
8.F\	6	2dd\	4ff\
16G\Jk	.	.	.
8.A\L	5 4	.	2ee\
16G\k	.	.	.
8.A\	#	4cc#X\	.
16AA\Jk	.	.	.
=8	=8	=8	=8
8.D\L	.	2dd\	2dd\
16E\k	.	.	.
8.F\	6	.	.
16E\Jk	.	.	.
8.D\L	#	4.aa\	4.ff#X\
16d\k	.	.	.
8.c\	4#| 2	.	.
.	.	8aa\	8ff#y\
16d\Jk	.	.	.
!!LO:LB:g=original
=9	=9	=9	=9
8.B-y\L	6	4dd\	4.gg\
16A\k	.	.	.
8.B-y\	.	2gg\	.
.	.	.	8gg\
16G\Jk	.	.	.
8.D/L	5 4	.	4.aa\
16C/k	.	.	.
8.D/	#	4ff#X\	.
.	.	.	8aa\
16DD/Jk	.	.	.
=10	=10	=10	=10
8.G\L	.	4gg\	4bb-y\
16F#X\k	.	.	.
8.G\	.	[4b-y\	4gg\
16A\Jk	.	.	.
8.B-y\L	6	8.b-y\L]	4dd\
16A\k	.	16cc\k	.
8.B-y\	.	8.dd\	4gg\
16G\Jk	.	16ee\Jk	.
=11	=11	=11	=11
8.A\L	6	4ff\	4cc\
16G\k	.	.	.
8.A\	.	4cc\	8.ff\L
16B-y\Jk	.	.	16gg\Jk
8.c\L	.	4.g/	4.ee\t
16B-y\k	.	.	.
8.c\	.	.	.
.	.	8cc\	8ff\
16C\Jk	.	.	.
=12	=12	=12	=12
*>B1	*>B1	*>B1	*>B1
8.F\L	.	2a/	2ff\
16G\k	.	.	.
8.A\	.	.	.
16G\Jk	.	.	.
=2:|!	=2:|!	=2:|!	=2:|!
*>B2	*>B2	*>B2	*>B2
2F\	.	2a/	2ff\
==	==	==	==
*-	*-	*-	*-
!!!SMS: RV 69 / Estienne Roger (No. 363), Amsterdam [facs.]
!!!ENC: Fran Bennion   rev. 05/12/21 E Correia
!!!END: 2004/10/07
!!!ONB: Converted from MuseData with musedata2hum on Sat May 11 12:01:55 2024
!!!YEM: (C) 2004, 2019 Center for Computer Assisted Research in the Humanities
!!!system-decoration: [(s1,s2,s3)]
!!!URL-info: https://wiki.ccarh.org/wiki/MuseData:_Antonio_Vivaldi#Op._1:_Suonate_da_camera_a_tr.C3.A8.2C_due_violini_e_violone_o_cembalo Information about Vivaldi Op. 1 on the CCARH wiki
!!!URL-pdf: https://pdf.musedata.org/vivaldi-op01-no05.pdf#page=3 MuseData edition
!!!URL-pdf: https://s9.imslp.org/files/imglnks/usimg/1/18/IMSLP280399-PMLP10351-Vivaldi_Sonatas_Op_1_-_Violino_Primo.pdf#page=9 Violino primo part, Amsterdam: Estienne Roger, n.d.(ca.1723). Plate 363.
!!!URL-pdf: https://s9.imslp.org/files/imglnks/usimg/d/d5/IMSLP280400-PMLP10351-Vivaldi_Sonatas_Op_1_-_Violino_Secondo.pdf#page=8 Violino secondo part, Amsterdam: Estienne Roger, n.d.(ca.1723). Plate 363.
!!!URL-pdf: https://s9.imslp.org/files/imglnks/usimg/8/89/IMSLP280401-PMLP10351-Vivaldi_Sonatas_Op_1_-_Organo_e_Violoncello.pdf#page=8 Organo e Violoncello parts, Amsterdam: Estienne Roger, n.d.(ca.1723). Plate 363.
!!!URL-youtube: https://www.youtube.com/watch?v=P5HHPe_W6Uo&t=1229s L'Arte dell'Arco
!!!title: @{OTL}, mov. @{OMV}
!!!filter-vcross: vcross
!!!EEV: 2024/05/11
!!!source-file: https://bitbucket.org/musedata/vivaldi/src/master/roger/op1/no05/stage2/04/01
!!!source-file: https://bitbucket.org/musedata/vivaldi/src/master/roger/op1/no05/stage2/04/02
!!!source-file: https://bitbucket.org/musedata/vivaldi/src/master/roger/op1/no05/stage2/04/03
!!!source-file: https://bitbucket.org/musedata/vivaldi/src/master/roger/op1/no05/stage2/04/04
